public/assets/img/twitter-white.svg

<svg width="20" height="20" viewBox="0 0 20 20" fill="none" xmlns="http://www.w3.org/2000/svg">
<path fill-rule="evenodd" clip-rule="evenodd" d="M0 10C0 4.47715 4.47715 0 10 0C15.5228 0 20 4.47715 20 10C20 15.5228 15.5228 20 10 20C4.47715 20 0 15.5228 0 10ZM9.7005 8.12812L9.72149 8.47415L9.37175 8.43178C8.09869 8.26936 6.98652 7.71855 6.04222 6.79347L5.58057 6.33446L5.46166 6.67342C5.20984 7.42902 5.37072 8.22699 5.89533 8.76368C6.17512 9.06027 6.11217 9.10264 5.62953 8.9261C5.46166 8.8696 5.31477 8.82723 5.30078 8.84842C5.25181 8.89785 5.41969 9.54046 5.55259 9.79468C5.73445 10.1478 6.10518 10.4938 6.51088 10.6986L6.85362 10.861L6.44792 10.8681C6.05621 10.8681 6.04222 10.8751 6.08419 11.0234C6.22409 11.4824 6.77668 11.9697 7.39222 12.1815L7.8259 12.3298L7.44818 12.5558C6.88859 12.8806 6.23108 13.0642 5.57357 13.0784C5.25881 13.0854 5 13.1137 5 13.1349C5 13.2055 5.85336 13.6009 6.35 13.7563C7.83989 14.2153 9.60957 14.0176 10.9386 13.2337C11.8829 12.6758 12.8272 11.5672 13.2678 10.4938C13.5057 9.92179 13.7435 8.87666 13.7435 8.37528C13.7435 8.05045 13.7645 8.00808 14.1562 7.61968C14.387 7.39371 14.6039 7.14655 14.6458 7.07593C14.7158 6.94176 14.7088 6.94176 14.352 7.06181C13.7575 7.27366 13.6735 7.24541 13.9673 6.92764C14.1842 6.70166 14.443 6.29209 14.443 6.17204C14.443 6.15085 14.338 6.18616 14.2191 6.24972C14.0932 6.32033 13.8134 6.42626 13.6036 6.48981L13.2259 6.60986L12.8831 6.37683C12.6943 6.24972 12.4285 6.10848 12.2886 6.06611C11.9318 5.96725 11.3862 5.98137 11.0645 6.09436C10.1901 6.41214 9.63755 7.23129 9.7005 8.12812Z" fill="white"/>
</svg>

<svg width="20" height="20" fill="none" xmlns="http://www.w3.org/2000/svg"><path fill-rule="evenodd" clip-rule="evenodd" d="M0 10C0 4.477 4.477 0 10 0s10 4.477 10 10-4.477 10-10 10S0 15.523 0 10Zm9.7-1.872.021.346-.35-.042C8.1 8.269 6.988 7.719 6.043 6.793l-.461-.459-.12.34c-.251.755-.09 1.553.434 2.09.28.296.217.339-.265.162-.168-.056-.315-.099-.33-.078-.048.05.12.692.253.947.181.353.552.699.958.904l.343.162-.406.007c-.392 0-.406.007-.364.155.14.46.693.947 1.308 1.159l.434.148-.378.226a3.94 3.94 0 0 1-1.874.522c-.315.007-.574.036-.574.057 0 .07.853.466 1.35.621 1.49.46 3.26.262 4.589-.522.944-.558 1.888-1.667 2.329-2.74.238-.572.475-1.617.475-2.119 0-.325.021-.367.413-.755.231-.226.448-.473.49-.544.07-.134.063-.134-.294-.014-.595.212-.678.183-.385-.134.217-.226.476-.636.476-.756 0-.021-.105.014-.224.078-.126.07-.406.176-.615.24l-.378.12-.343-.233a2.845 2.845 0 0 0-.594-.31c-.357-.1-.903-.086-1.224.027-.875.318-1.427 1.137-1.364 2.034Z" fill="#fff"/></svg>
